src/icons/svgs/24/circle-x.svg

<svg width="24" height="24" viewBox="0 0 24 24" fill="none" xmlns="http://www.w3.org/2000/svg">
<path d="M15.1289 8.83594C14.7627 8.46973 14.1695 8.46973 13.8031 8.83594L12 10.6758L10.1289 8.83594C9.7627 8.46973 9.16953 8.46973 8.80313 8.83594C8.43672 9.20215 8.43691 9.79531 8.80313 10.1617L10.6402 11.9988L8.83594 13.8359C8.46973 14.2021 8.46973 14.7953 8.83594 15.1617C9.20207 15.5279 9.79531 15.5282 10.1617 15.1617L12 13.3242L13.8371 15.1613C14.2032 15.5275 14.7965 15.5278 15.1629 15.1613C15.5291 14.7951 15.5291 14.202 15.1629 13.8355L13.3258 11.9984L15.1629 10.1613C15.5273 9.79687 15.5273 9.20312 15.1289 8.83594ZM12 2C6.47656 2 2 6.47656 2 12C2 17.5234 6.47656 22 12 22C17.5234 22 22 17.5234 22 12C22 6.47656 17.5234 2 12 2ZM12 20.125C7.51953 20.125 3.875 16.4801 3.875 12C3.875 7.51992 7.51953 3.875 12 3.875C16.4805 3.875 20.125 7.51992 20.125 12C20.125 16.4801 16.4805 20.125 12 20.125Z" fill="black"/>
</svg>

<svg width="24" height="24" viewBox="0 0 24 24" xmlns="http://www.w3.org/2000/svg">
    <path d="M15.129 8.836a.937.937 0 0 0-1.326 0L12 10.676l-1.871-1.84a.937.937 0 1 0-1.326 1.326l1.837 1.837-1.804 1.837a.937.937 0 1 0 1.326 1.326L12 13.324l1.837 1.837a.937.937 0 1 0 1.326-1.325l-1.837-1.838 1.837-1.837a.911.911 0 0 0-.034-1.325ZM12 2C6.477 2 2 6.477 2 12s4.477 10 10 10 10-4.477 10-10S17.523 2 12 2Zm0 18.125c-4.48 0-8.125-3.645-8.125-8.125S7.52 3.875 12 3.875 20.125 7.52 20.125 12 16.48 20.125 12 20.125Z"/>
</svg>
